documentation/public/assets/images/slider-08-do-and-dont-1.svg

<svg width="256" height="44" viewBox="0 0 256 44" fill="none" xmlns="http://www.w3.org/2000/svg">
<rect y="6" width="256" height="4" rx="2" fill="#B0B0B0"/>
<rect y="6" width="84" height="4" rx="2" fill="#1E71F6"/>
<circle cx="76" cy="8" r="8" fill="#194CCC"/>
<path d="M67.1364 43.1591C66.3864 43.1591 65.7178 43.0303 65.1307 42.7727C64.5473 42.5152 64.0833 42.1572 63.7386 41.6989C63.3977 41.2367 63.2121 40.7008 63.1818 40.0909H64.6136C64.6439 40.4659 64.7727 40.7898 65 41.0625C65.2273 41.3314 65.5246 41.5398 65.892 41.6875C66.2595 41.8352 66.6667 41.9091 67.1136 41.9091C67.6136 41.9091 68.0568 41.822 68.4432 41.6477C68.8295 41.4735 69.1326 41.2311 69.3523 40.9205C69.572 40.6098 69.6818 40.25 69.6818 39.8409C69.6818 39.4129 69.5758 39.036 69.3636 38.7102C69.1515 38.3807 68.8409 38.1231 68.4318 37.9375C68.0227 37.7519 67.5227 37.6591 66.9318 37.6591H66V36.4091H66.9318C67.3939 36.4091 67.7992 36.3258 68.1477 36.1591C68.5 35.9924 68.7746 35.7576 68.9716 35.4545C69.1723 35.1515 69.2727 34.7955 69.2727 34.3864C69.2727 33.9924 69.1856 33.6496 69.0114 33.358C68.8371 33.0663 68.5909 32.839 68.2727 32.6761C67.9583 32.5133 67.5871 32.4318 67.1591 32.4318C66.7576 32.4318 66.3788 32.5057 66.0227 32.6534C65.6705 32.7973 65.3826 33.0076 65.1591 33.2841C64.9356 33.5568 64.8144 33.8864 64.7955 34.2727H63.4318C63.4545 33.6629 63.6383 33.1288 63.983 32.6705C64.3277 32.2083 64.7784 31.8485 65.3352 31.5909C65.8958 31.3333 66.5114 31.2045 67.1818 31.2045C67.9015 31.2045 68.5189 31.3504 69.0341 31.642C69.5492 31.9299 69.9451 32.3106 70.2216 32.7841C70.4981 33.2576 70.6364 33.7689 70.6364 34.3182C70.6364 34.9735 70.464 35.5322 70.1193 35.9943C69.7784 36.4564 69.3144 36.7765 68.7273 36.9545V37.0455C69.4621 37.1667 70.036 37.4792 70.4489 37.983C70.8617 38.483 71.0682 39.1023 71.0682 39.8409C71.0682 40.4735 70.8958 41.0417 70.5511 41.5455C70.2102 42.0455 69.7443 42.4394 69.1534 42.7273C68.5625 43.0152 67.8902 43.1591 67.1364 43.1591ZM77.1875 43.1591C76.3314 43.1591 75.6023 42.9261 75 42.4602C74.3977 41.9905 73.9375 41.3106 73.6193 40.4205C73.3011 39.5265 73.142 38.447 73.142 37.1818C73.142 35.9242 73.3011 34.8504 73.6193 33.9602C73.9413 33.0663 74.4034 32.3845 75.0057 31.9148C75.6117 31.4413 76.339 31.2045 77.1875 31.2045C78.036 31.2045 78.7614 31.4413 79.3636 31.9148C79.9697 32.3845 80.4318 33.0663 80.75 33.9602C81.072 34.8504 81.233 35.9242 81.233 37.1818C81.233 38.447 81.0739 39.5265 80.7557 40.4205C80.4375 41.3106 79.9773 41.9905 79.375 42.4602C78.7727 42.9261 78.0436 43.1591 77.1875 43.1591ZM77.1875 41.9091C78.036 41.9091 78.6951 41.5 79.1648 40.6818C79.6345 39.8636 79.8693 38.697 79.8693 37.1818C79.8693 36.1742 79.7614 35.3163 79.5455 34.608C79.3333 33.8996 79.0265 33.3598 78.625 32.9886C78.2273 32.6174 77.7481 32.4318 77.1875 32.4318C76.3466 32.4318 75.6894 32.8466 75.2159 33.6761C74.7424 34.5019 74.5057 35.6705 74.5057 37.1818C74.5057 38.1894 74.6117 39.0455 74.8239 39.75C75.036 40.4545 75.3409 40.9905 75.7386 41.358C76.1402 41.7254 76.6231 41.9091 77.1875 41.9091ZM89.3239 40.8182V40.2045C89.3239 39.7803 89.411 39.392 89.5852 39.0398C89.7633 38.6837 90.0208 38.3996 90.358 38.1875C90.6989 37.9716 91.1117 37.8636 91.5966 37.8636C92.089 37.8636 92.5019 37.9716 92.8352 38.1875C93.1686 38.3996 93.4205 38.6837 93.5909 39.0398C93.7614 39.392 93.8466 39.7803 93.8466 40.2045V40.8182C93.8466 41.2424 93.7595 41.6326 93.5852 41.9886C93.4148 42.3409 93.161 42.625 92.8239 42.8409C92.4905 43.053 92.0814 43.1591 91.5966 43.1591C91.1042 43.1591 90.6894 43.053 90.3523 42.8409C90.0152 42.625 89.7595 42.3409 89.5852 41.9886C89.411 41.6326 89.3239 41.2424 89.3239 40.8182ZM90.483 40.2045V40.8182C90.483 41.1705 90.5663 41.4867 90.733 41.767C90.8996 42.0436 91.1875 42.1818 91.5966 42.1818C91.9943 42.1818 92.2746 42.0436 92.4375 41.767C92.6042 41.4867 92.6875 41.1705 92.6875 40.8182V40.2045C92.6875 39.8523 92.608 39.5379 92.4489 39.2614C92.2898 38.9811 92.0057 38.8409 91.5966 38.8409C91.1989 38.8409 90.9129 38.9811 90.7386 39.2614C90.5682 39.5379 90.483 39.8523 90.483 40.2045ZM83.5284 34.1591V33.5455C83.5284 33.1212 83.6155 32.733 83.7898 32.3807C83.9678 32.0246 84.2254 31.7405 84.5625 31.5284C84.9034 31.3125 85.3163 31.2045 85.8011 31.2045C86.2936 31.2045 86.7064 31.3125 87.0398 31.5284C87.3731 31.7405 87.625 32.0246 87.7955 32.3807C87.9659 32.733 88.0511 33.1212 88.0511 33.5455V34.1591C88.0511 34.5833 87.964 34.9735 87.7898 35.3295C87.6193 35.6818 87.3655 35.9659 87.0284 36.1818C86.6951 36.3939 86.286 36.5 85.8011 36.5C85.3087 36.5 84.8939 36.3939 84.5568 36.1818C84.2197 35.9659 83.964 35.6818 83.7898 35.3295C83.6155 34.9735 83.5284 34.5833 83.5284 34.1591ZM84.6875 33.5455V34.1591C84.6875 34.5114 84.7708 34.8277 84.9375 35.108C85.1042 35.3845 85.392 35.5227 85.8011 35.5227C86.1989 35.5227 86.4792 35.3845 86.642 35.108C86.8087 34.8277 86.892 34.5114 86.892 34.1591V33.5455C86.892 33.1932 86.8125 32.8788 86.6534 32.6023C86.4943 32.322 86.2102 32.1818 85.8011 32.1818C85.4034 32.1818 85.1174 32.322 84.9432 32.6023C84.7727 32.8788 84.6875 33.1932 84.6875 33.5455ZM83.9602 43L91.9602 31.3636H93.2557L85.2557 43H83.9602Z" fill="#757575"/>
</svg>

<svg width="256" height="44" fill="none" xmlns="http://www.w3.org/2000/svg"><rect y="6" width="256" height="4" rx="2" fill="#B0B0B0"/><rect y="6" width="84" height="4" rx="2" fill="#1E71F6"/><circle cx="76" cy="8" r="8" fill="#194CCC"/><path d="M67.14 43.16c-.75 0-1.42-.13-2-.39a3.44 3.44 0 0 1-1.4-1.07c-.34-.46-.53-1-.56-1.6h1.43c.03.37.16.69.39.96s.52.48.9.63c.36.15.77.22 1.21.22.5 0 .95-.09 1.33-.26.39-.18.7-.42.91-.73.22-.31.33-.67.33-1.08 0-.43-.1-.8-.32-1.13a2.1 2.1 0 0 0-.93-.77 3.5 3.5 0 0 0-1.5-.28H66V36.4h.93c.46 0 .87-.08 1.22-.25a1.89 1.89 0 0 0 1.13-1.77 2 2 0 0 0-.27-1.03c-.17-.3-.42-.52-.74-.68a2.4 2.4 0 0 0-1.11-.25c-.4 0-.78.08-1.14.22-.35.15-.64.36-.86.63-.22.28-.35.6-.36 1h-1.37c.02-.62.2-1.15.55-1.61.35-.46.8-.82 1.36-1.08a4.37 4.37 0 0 1 3.7.05 3.08 3.08 0 0 1 1.6 2.68 2.62 2.62 0 0 1-1.9 2.64v.09c.72.12 1.3.43 1.7.93.42.5.63 1.12.63 1.86 0 .63-.17 1.2-.52 1.7-.34.5-.8.9-1.4 1.19a4.5 4.5 0 0 1-2.01.43Zm10.05 0c-.86 0-1.59-.23-2.19-.7a4.37 4.37 0 0 1-1.38-2.04 9.7 9.7 0 0 1-.48-3.24c0-1.26.16-2.33.48-3.22A4.4 4.4 0 0 1 75 31.91c.6-.47 1.33-.7 2.18-.7.85 0 1.57.23 2.17.7a4.37 4.37 0 0 1 1.39 2.05c.32.89.48 1.96.48 3.22a9.7 9.7 0 0 1-.47 3.24 4.37 4.37 0 0 1-1.39 2.04c-.6.47-1.33.7-2.18.7Zm0-1.25c.85 0 1.5-.41 1.97-1.23.47-.82.7-1.98.7-3.5 0-1-.1-1.86-.31-2.57a3.53 3.53 0 0 0-.92-1.62c-.4-.37-.88-.56-1.44-.56-.84 0-1.5.42-1.97 1.25a7.01 7.01 0 0 0-.71 3.5 9 9 0 0 0 .31 2.57c.22.7.52 1.24.92 1.6.4.38.88.56 1.45.56Zm12.13-1.1v-.6c0-.43.1-.82.27-1.17.17-.36.43-.64.77-.85.34-.22.75-.33 1.24-.33s.9.11 1.24.33c.33.21.58.5.75.85.17.35.26.74.26 1.16v.62c0 .42-.09.81-.26 1.17a2.06 2.06 0 0 1-2 1.17 2.1 2.1 0 0 1-2.01-1.17 2.63 2.63 0 0 1-.26-1.17Zm1.16-.6v.6c0 .36.09.68.25.96.17.27.46.41.87.41.4 0 .67-.14.84-.41.16-.28.25-.6.25-.95v-.62c0-.35-.08-.66-.24-.94-.16-.28-.44-.42-.85-.42-.4 0-.69.14-.86.42-.17.28-.26.6-.26.94Zm-6.95-6.05v-.61c0-.43.09-.82.26-1.17.18-.36.44-.64.77-.85.34-.22.76-.33 1.24-.33.5 0 .9.11 1.24.33.33.21.58.5.76.85.17.35.25.74.25 1.17v.6c0 .43-.09.82-.26 1.18a2.06 2.06 0 0 1-1.99 1.17 2.1 2.1 0 0 1-2.01-1.17 2.63 2.63 0 0 1-.26-1.17Zm1.16-.61v.6c0 .36.08.68.25.96.16.27.45.41.86.41.4 0 .68-.14.84-.41.17-.28.25-.6.25-.95v-.61c0-.36-.08-.67-.24-.95-.16-.28-.44-.42-.85-.42-.4 0-.68.14-.86.42-.17.28-.25.6-.25.95ZM83.96 43l8-11.64h1.3l-8 11.64h-1.3Z" fill="#757575"/></svg>
